X:4360
L:1/8
M:4/4
K:Emin
 B2 A>F E<EEF | A<DA>F A<DFA | B2 A>G E<EEF | ADAF{F} E2 E :| F | DFAB A<F A2 | Bcdf e>dB>c | 
 d<fB<d D>EFA | B<d{B} A>F E2 EF | D>FAB AF A2 | Bcdf edBc | dfBd DEFA | B<cAF{F} E2 E ||

